src/images/benefit-three.svg

<svg width="60" height="60" viewBox="0 0 60 60" fill="none" xmlns="http://www.w3.org/2000/svg">
<path d="M30 5.05798C29.3528 5.05798 28.8281 5.58264 28.8281 6.22987V8.44966C28.8281 9.0969 29.3528 9.62155 30 9.62155C30.6472 9.62155 31.1719 9.0969 31.1719 8.44966V6.22987C31.1719 5.58264 30.6472 5.05798 30 5.05798Z" fill="white"/>
<path d="M30 50.8958C29.3528 50.8958 28.8281 51.4204 28.8281 52.0676V54.2874C28.8281 54.9347 29.3528 55.4593 30 55.4593C30.6472 55.4593 31.1719 54.9347 31.1719 54.2874V52.0676C31.1719 51.4204 30.6472 50.8958 30 50.8958Z" fill="white"/>
<path d="M54.0288 29.0869H51.8089C51.1617 29.0869 50.637 29.6115 50.637 30.2587C50.637 30.906 51.1617 31.4306 51.8089 31.4306H54.0288C54.676 31.4306 55.2007 30.906 55.2007 30.2587C55.2007 29.6115 54.676 29.0869 54.0288 29.0869Z" fill="white"/>
<path d="M8.19104 29.0869H5.97115C5.32392 29.0869 4.79927 29.6115 4.79927 30.2587C4.79927 30.906 5.32392 31.4306 5.97115 31.4306H8.19104C8.83826 31.4306 9.36291 30.906 9.36291 30.2587C9.36291 29.6115 8.83826 29.0869 8.19104 29.0869Z" fill="white"/>
<path d="M46.1622 12.4391L44.5925 14.0088C44.1349 14.4665 44.1349 15.2085 44.5925 15.6662C44.8213 15.8951 45.1212 16.0095 45.4211 16.0095C45.721 16.0095 46.021 15.8951 46.2497 15.6662L47.8195 14.0965C48.2771 13.6389 48.2771 12.8968 47.8195 12.4391C47.3618 11.9815 46.6198 11.9815 46.1622 12.4391Z" fill="white"/>
<path d="M13.75 44.8513L12.1803 46.421C11.7227 46.8787 11.7227 47.6207 12.1803 48.0784C12.4092 48.3073 12.7091 48.4216 13.0089 48.4216C13.3088 48.4216 13.6088 48.3073 13.8376 48.0784L15.4073 46.5087C15.8649 46.0511 15.8649 45.3091 15.4073 44.8513C14.9497 44.3937 14.2077 44.3937 13.75 44.8513Z" fill="white"/>
<path d="M46.2499 44.8513C45.7922 44.3937 45.0502 44.3937 44.5925 44.8513C44.1349 45.3089 44.1349 46.051 44.5925 46.5087L46.1622 48.0784C46.3911 48.3073 46.6909 48.4216 46.9908 48.4216C47.2907 48.4216 47.5907 48.3073 47.8195 48.0784C48.2771 47.6208 48.2771 46.8788 47.8195 46.421L46.2499 44.8513Z" fill="white"/>
<path d="M13.8377 12.4391C13.3801 11.9815 12.6381 11.9815 12.1803 12.4391C11.7227 12.8967 11.7227 13.6388 12.1803 14.0965L13.75 15.6662C13.9789 15.8951 14.2788 16.0095 14.5787 16.0095C14.8786 16.0095 15.1786 15.8951 15.4073 15.6662C15.8649 15.2086 15.8649 14.4666 15.4073 14.0088L13.8377 12.4391Z" fill="white"/>
<path d="M51.2132 8.78684C45.5469 3.12047 38.0133 0 30 0C21.9867 0 14.4531 3.12047 8.78684 8.78684C3.12047 14.4531 0 21.9867 0 30C0 38.0133 3.12047 45.5469 8.78684 51.2132C14.4531 56.8795 21.9867 60 30 60C38.0133 60 45.5469 56.8795 51.2132 51.2132C56.8795 45.5469 60 38.0133 60 30C60 21.9867 56.8795 14.4531 51.2132 8.78684ZM30 57.6562C14.7503 57.6562 2.34375 45.2497 2.34375 30C2.34375 14.7503 14.7503 2.34375 30 2.34375C45.2497 2.34375 57.6562 14.7503 57.6562 30C57.6562 45.2497 45.2497 57.6562 30 57.6562Z" fill="white"/>
<path d="M30 47.2612C39.5331 47.2612 47.2612 39.5331 47.2612 30C47.2612 20.4669 39.5331 12.7388 30 12.7388C20.4668 12.7388 12.7387 20.4669 12.7387 30C12.7387 39.5331 20.4668 47.2612 30 47.2612Z" fill="#FA8334"/>
<path d="M31.9856 29.1085C31.611 28.9761 31.2622 28.8511 30.9391 28.7337V22.7686C31.9147 22.9275 32.6317 23.3656 32.9951 23.8835C33.3668 24.4133 34.0977 24.5413 34.6275 24.1695C35.1573 23.7977 35.2854 23.0669 34.9135 22.5371C34.1699 21.4774 32.7727 20.6073 30.9391 20.405V19.6985C30.9391 19.0513 30.4145 18.5266 29.7673 18.5266C29.1201 18.5266 28.5954 19.0513 28.5954 19.6985V20.5038C28.257 20.5661 27.9097 20.6498 27.5547 20.7568C25.7161 21.3106 24.328 23.1021 24.1789 25.1133C24.0325 27.0861 25.0895 28.8036 27.0061 29.7075C27.3382 29.864 27.8884 30.09 28.5954 30.3616V37.3359C27.4949 37.1001 26.4287 36.6069 25.7752 35.7955C25.3692 35.2915 24.6314 35.2119 24.1274 35.618C23.6234 36.0239 23.5439 36.7617 23.9499 37.2657C25.1229 38.722 26.9044 39.4534 28.5954 39.7227V40.3017C28.5954 40.9489 29.1201 41.4736 29.7673 41.4736C30.4145 41.4736 30.9391 40.9489 30.9391 40.3017V39.8164C30.9474 39.8157 30.9556 39.815 30.9636 39.8143C34.4974 39.5057 36.0216 37.3087 36.2696 35.3557C36.6083 32.6886 34.8466 30.1198 31.9856 29.1085ZM28.0056 27.5874C26.6099 26.9293 26.4734 25.8634 26.5162 25.2865C26.594 24.238 27.3149 23.2767 28.2306 23.001C28.3538 22.9638 28.4754 22.9305 28.5953 22.9009V27.8414C28.3286 27.7322 28.1324 27.6471 28.0056 27.5874ZM33.9445 35.0603C33.778 36.3709 32.6597 37.2596 30.9391 37.4611V31.2242C31.0268 31.2554 31.1153 31.2868 31.2046 31.3183C33.3187 32.0655 34.1068 33.7819 33.9445 35.0603Z" fill="white"/>
</svg>

<svg width="60" height="60" fill="none" xmlns="http://www.w3.org/2000/svg"><path d="M30 5.058c-.647 0-1.172.525-1.172 1.172v2.22a1.172 1.172 0 002.344 0V6.23c0-.647-.525-1.172-1.172-1.172zM30 50.896c-.647 0-1.172.524-1.172 1.172v2.22a1.172 1.172 0 102.344 0v-2.22c0-.648-.525-1.172-1.172-1.172zM54.029 29.087h-2.22a1.172 1.172 0 100 2.344h2.22a1.172 1.172 0 100-2.344zM8.191 29.087h-2.22a1.172 1.172 0 100 2.344h2.22a1.172 1.172 0 100-2.344zM46.162 12.44l-1.57 1.569a1.172 1.172 0 001.658 1.657l1.57-1.57a1.172 1.172 0 00-1.658-1.657zM13.75 44.851l-1.57 1.57a1.172 1.172 0 001.658 1.657l1.57-1.57a1.172 1.172 0 00-1.658-1.657zM46.25 44.851a1.172 1.172 0 00-1.657 1.658l1.57 1.57a1.168 1.168 0 001.657 0c.457-.458.457-1.2 0-1.658l-1.57-1.57zM13.838 12.44a1.172 1.172 0 00-1.658 1.657l1.57 1.57a1.168 1.168 0 001.657 0c.458-.458.458-1.2 0-1.658l-1.57-1.57z" fill="#fff"/><path d="M51.213 8.787C45.547 3.12 38.013 0 30 0 21.987 0 14.453 3.12 8.787 8.787 3.12 14.453 0 21.987 0 30c0 8.013 3.12 15.547 8.787 21.213C14.453 56.88 21.987 60 30 60c8.013 0 15.547-3.12 21.213-8.787C56.88 45.547 60 38.013 60 30c0-8.013-3.12-15.547-8.787-21.213zM30 57.657C14.75 57.656 2.344 45.25 2.344 30S14.75 2.344 30 2.344C45.25 2.344 57.656 14.75 57.656 30c0 15.25-12.406 27.656-27.656 27.656z" fill="#fff"/><path d="M30 47.261c9.533 0 17.261-7.728 17.261-17.261S39.533 12.739 30 12.739 12.739 20.467 12.739 30 20.467 47.261 30 47.261z" fill="#FA8334"/><path d="M31.986 29.108c-.375-.132-.724-.257-1.047-.374v-5.965c.976.159 1.693.597 2.056 1.115a1.172 1.172 0 101.919-1.347c-.744-1.06-2.141-1.93-3.975-2.132v-.707a1.172 1.172 0 10-2.344 0v.806a9.68 9.68 0 00-1.04.253c-1.839.554-3.227 2.345-3.376 4.356-.146 1.973.91 3.69 2.827 4.595.332.156.882.382 1.59.654v6.974c-1.101-.236-2.167-.73-2.82-1.54a1.172 1.172 0 00-1.826 1.47c1.173 1.456 2.954 2.187 4.645 2.457v.579a1.172 1.172 0 002.344 0v-.486l.025-.002c3.533-.308 5.058-2.505 5.306-4.458.338-2.667-1.423-5.236-4.284-6.248zm-3.98-1.52c-1.396-.659-1.533-1.725-1.49-2.302.078-1.048.799-2.01 1.715-2.285.123-.037.244-.07.364-.1v4.94c-.266-.109-.463-.194-.59-.254zm5.938 7.472c-.166 1.31-1.284 2.2-3.005 2.401v-6.237l.266.094c2.114.747 2.902 2.464 2.74 3.742z" fill="#fff"/></svg>
